X: 4342
T: Boil The Kettle Early
R: reel
M: 4/4
K: Amajor
c3A B2 AF|EAcA BAFA|BccA BAFA|ecBd cAAB|
c3A B2 AF|EAcA BAFA|c3A B2af|ecBd cAAB||
ce e2 feec|ABcA BAFA|ce e2 fece|fa a2 bafe|
ce e2 a3f|ABcA BAFA|c3A B2af|ecBd cAAB||

